symbols/web/format_color_reset/materialsymbolsoutlined/format_color_reset_wght700grad200fill1_40px.svg

<svg xmlns="http://www.w3.org/2000/svg" height="40" width="40"><path d="M32.917 28.542 12.958 8.583l7.042-7 10.25 10.084q2.083 1.916 3.229 4.562 1.146 2.646 1.146 5.771 0 1.708-.458 3.375-.459 1.667-1.25 3.167Zm1.25 10.708-5.75-5.708q-1.667 1.25-3.813 1.979-2.146.729-4.604.729-6 0-10.271-4.188-4.271-4.187-4.271-10.187 0-2.542.667-4.583.667-2.042 2.167-3.917l-7.5-7.5 2.375-2.333 33.375 33.333Z"/></svg>

<svg xmlns="http://www.w3.org/2000/svg" height="40" width="40"><path d="M32.917 28.542 12.958 8.583 20 1.583 30.25 11.667Q32.333 13.583 33.479 16.229Q34.625 18.875 34.625 22Q34.625 23.708 34.167 25.375Q33.708 27.042 32.917 28.542ZM34.167 39.25 28.417 33.542Q26.75 34.792 24.604 35.521Q22.458 36.25 20 36.25Q14 36.25 9.729 32.062Q5.458 27.875 5.458 21.875Q5.458 19.333 6.125 17.292Q6.792 15.25 8.292 13.375L0.792 5.875L3.167 3.542L36.542 36.875Z"/></svg>
